X:1
T:Title
%%score { 1 | 2 }
L:1/8
M:6/8
K:Ab
V:1 treble nm="Grand Piano"
V:2 bass 
V:1
 z3 z2[Q:1/4=78] [A,C]/[B,D]/ | [CE][Ec][DB] [CA][DG][CA] | BAF [CE]2 [A,C]/[B,D]/ | %3
 [CE][Ec][DB] [=DA][DB][Dc] | [EB]3- [EB]2 [A,C]/[B,D]/ | [CE][Ec][DB] [CA][DG][CA] | %6
[M:5/8] BAF [CE]2 |[M:1/8] [CE]/[CE]/ |[M:3/4] FB AG FG | [CA]6 | [Ec]3 [Fd]3 | [Ec]6 | AA AA GF | %13
 [CE]4- [CE][CE] | [CA][CA] [CA] [Ec]2 [_Ge] | [Fd]4- [Fd]F | E3 B3 |[M:5/8] [CA]-[CA]- [CA]3 |] %18
V:2
 z3 z2 [A,,E,]/[A,,E,]/ | [A,,A,][A,,A,][A,,A,] [A,,A,][B,,E,][A,,E,] | %2
 [D,F,D][D,F,D][D,A,D] [A,,A,]2 [A,,E,]/[A,,E,]/ | [A,,A,][A,,A,][A,,A,] [B,,A,][B,,A,][B,,A,] | %4
 [E,G,]3- [E,G,]2 [A,,E,]/[A,,E,]/ | [A,,A,][A,,A,][A,,A,] [A,,A,][B,,E,][A,,E,] | %6
[M:5/8] [D,F,D][D,F,D][D,A,D] [A,,A,]2 |[M:1/8] [A,,A,]/[A,,A,]/ | %8
[M:3/4] [D,A,D][D,F,D] [D,B,D][E,B,D] [E,B,D][E,B,D] | [A,,A,]6 | [A,,A,]3 [A,,A,]3 | [A,,A,]6 | %12
 [D,F,D][D,F,D] [D,F,D][D,F,D] [D,G,D][D,A,D] | [A,,A,]4- [A,,A,][A,,A,] | %14
 [A,,A,][A,,A,] [A,,A,] [A,,A,]2 [C,A,] | [D,A,]4- [D,A,][D,A,D] | [E,A,C]3 [E,G,D]3 | %17
[M:5/8] [A,,A,]-[A,,A,]- [A,,A,]3 |] %18

